!!!OTL: Der geistliche Buchsbaum. / d. Neuere Choralform, 1738 in Koenigs harmon. Liederschatz. (S. 277.) / (Nun hoeret zu ihr Christenleut ⁊c.)
!!!ARE: Europa, Mitteleuropa, Deutschland
!!!SCT: A0654D
!!!OPR: 654. Der geistliche Buchsbaum.
!!!YEM: Copyright 1995, estate of Helmut Schaffrath.
**kern
*M4/4
*met(c)
*k[f#c#g#]
*A:
=1
4ryy
{4a
4a
4a
=2
4b
4cc#
4dd
4cc#
=3
2b
4r
4cc#
=4
4dd
4dd
4cc#
4a
=5
4b
4cc#
2b
=6
4r}
{4b/
4a
4a
=7
4a
4f#
2g#
=8
2a
4r
4b
=9
4cc#
4dd
4dd
4cc#
=10
2a
2b/
=11
4r}
{4a
4cc#
4dd
=12
4dd
4cc#
2b
=13
1a}
==
!!!GTL: Geistliche Volkslieder
!!!AGN: Romanze, Ballade, Lied, religioeses Lied
!! Koenigs harmon. Liederschatz 1738 S. 277
!!!ONB: ESAC (Essen Associative Code) Database: ALTDEU
!!!AMT: simple quadruple
!!!AIN: vox
!!!EED: Helmut Schaffrath
!!!EEV: 1.0
!!!URL-scan: https://rosdok.uni-rostock.de/mcrviewer/recordIdentifier/rosdok_ppn738218359/iview2/phys_0834.iview2?x=-495.6391625615763&y=2023.1482758438215&scale=0.4629418472063854&rotation=0&layout=singlePageLayout
!!!ENC: Anna Maria Matuszewska
!!!EEV: 2024/26/03
*-
